**harm	**harte	**kern	**silbe	**kern	**silbe	**kern	**silbe	**rhyme	**timestamp	**phrase	**leadinstrument
*M6/8	*M6/8	*ICvox	*	*ICvox	*	*ICvox	*	*	*	*	*
*	*	*VRlead	*	*VRharmonize	*	*VRharmonize	*	*	*	*	*
*	*	*Hstimme	*	*Nstimme	*	*Nstimme	*	*	*	*	*
*c:	*c:	*c:	*	*c:	*	*c:	*	*	*c:	*c:	*c:
*	*	*M6/8	*	*M6/8	*	*M6/8	*	*	*	*	*
*	*	*clefG2	*	*clefG2	*	*clefG2	*	*	*	*	*
1r;	N	r;	.	r;	.	r;	.	.	0	.	r
=1	=1	=1	=1	=1	=1	=1	=1	=1	=1	=1	=1
2.r	N	4.r	.	2.r	.	2.r	.	.	0.418	.	.
.	.	8G	I've	.	.	.	.	.	.	.	.
.	.	8B-	paid	.	.	.	.	.	.	.	.
.	.	8c	my	.	.	.	.	.	.	.	.
=2	=2	=2	=2	=2	=2	=2	=2	=2	=2	=2	=2
*>Letter>A	*>Letter>A	*>Letter>A	*>Letter>A	*>Letter>A	*>Letter>A	*>Letter>A	*>Letter>A	*>Letter>A	*>Letter>A	*>Letter>A	*>Letter>A
*>Label>Verse	*>Label>Verse	*>Label>Verse	*>Label>Verse	*>Label>Verse	*>Label>Verse	*>Label>Verse	*>Label>Verse	*>Label>Verse	*>Label>Verse	*>Label>Verse	*>Label>Verse
2.i	C:min	2.c	dues	2.r	.	2.r	.	A	1.387	newline	voice
=3	=3	=3	=3	=3	=3	=3	=3	=3	=3	=3	=3
2.vf	G:sus4(b7)/4	4.r	.	2.r	.	2.r	.	.	3.324	.	voice
.	.	8G	time	.	.	.	.	B	.	.	.
.	.	8B-	af-	.	.	.	.	.	.	.	.
.	.	16d	-ter	.	.	.	.	.	.	.	.
.	.	[16c	time	.	.	.	.	B	.	.	.
=4	=4	=4	=4	=4	=4	=4	=4	=4	=4	=4	=4
2.i	C:min	4.c]	_	2.r	.	2.r	.	.	5.261	.	voice
.	.	4.r	.	.	.	.	.	.	.	.	.
=5	=5	=5	=5	=5	=5	=5	=5	=5	=5	=5	=5
2.vf	G:sus4(b7)/4	4.r	.	2.r	.	2.r	.	.	7.198	.	voice
.	.	8G	I've	.	.	.	.	.	.	.	.
.	.	8B-	done	.	.	.	.	.	.	.	.
.	.	[8c	my	.	.	.	.	.	.	.	.
=6	=6	=6	=6	=6	=6	=6	=6	=6	=6	=6	=6
2.i	C:min	8c]	_	2.r	.	2.r	.	.	9.135	newline	voice
.	.	16c	sen-	.	.	.	.	.	.	.	.
.	.	8.c	-tence	.	.	.	.	.	.	.	.
.	.	4.r	.	.	.	.	.	.	.	.	.
=7	=7	=7	=7	=7	=7	=7	=7	=7	=7	=7	=7
2.vf	G:sus4(b7)/4	4r	.	2.r	.	2.r	.	.	11.069	.	voice
.	.	16G	but	.	.	.	.	.	.	.	.
.	.	16G	co-	.	.	.	.	.	.	.	.
.	.	16d	-mmit-	.	.	.	.	.	.	.	.
.	.	16c	-ed	.	.	.	.	.	.	.	.
.	.	4B-	no	.	.	.	.	.	.	.	.
=8	=8	=8	=8	=8	=8	=8	=8	=8	=8	=8	=8
2.i	C:min	[4.c	crime	2.r	.	2.r	.	B	13.003	.	voice
.	.	4c]	_	.	.	.	.	.	.	.	.
.	.	8r	.	.	.	.	.	.	.	.	.
=9	=9	=9	=9	=9	=9	=9	=9	=9	=9	=9	=9
2.vf	G:sus4(b7)/4	4.r	.	2.r	.	2.r	.	.	14.938	.	voice
.	.	8B-	And	.	.	.	.	.	.	.	.
.	.	8d	bad	.	.	.	.	.	.	.	.
.	.	8e-	mis-	.	.	.	.	.	.	.	.
=10	=10	=10	=10	=10	=10	=10	=10	=10	=10	=10	=10
2.-III	E-:maj	4e-	-takes	2.r	.	2.r	.	.	16.872	newline	voice
.	.	8r	.	.	.	.	.	.	.	.	.
.	.	4.r	.	.	.	.	.	.	.	.	.
=11	=11	=11	=11	=11	=11	=11	=11	=11	=11	=11	=11
2.-viif	B-:sus4(b7)/4	4.r	.	2.r	.	2.r	.	.	18.803	.	voice
.	.	8B-	I've	.	.	.	.	.	.	.	.
.	.	16d	made	.	.	.	.	.	.	.	.
.	.	8e-	a	.	.	.	.	.	.	.	.
.	.	[16e-	few	.	.	.	.	A	.	.	.
=12	=12	=12	=12	=12	=12	=12	=12	=12	=12	=12	=12
2.-III	E-:maj	4e-]	_	2.r	.	2.r	.	.	20.735	.	voice
.	.	16c	_	.	.	.	.	.	.	.	.
.	.	16B-	_	.	.	.	.	.	.	.	.
.	.	4.r	.	.	.	.	.	.	.	.	.
=13	=13	=13	=13	=13	=13	=13	=13	=13	=13	=13	=13
2.-viif	B-:sus4(b7)/4	4.r	.	2.r	.	2.r	.	.	22.667	.	voice
.	.	8B-	I've	.	.	.	.	.	.	.	.
.	.	8d	had	.	.	.	.	.	.	.	.
.	.	8e-	my	.	.	.	.	.	.	.	.
=14	=14	=14	=14	=14	=14	=14	=14	=14	=14	=14	=14
4.-III	E-:maj	8.e-	share	2.r	.	2.r	.	.	24.598	newline	voice
.	.	16e-	of	.	.	.	.	.	.	.	.
.	.	8f	sand	.	.	.	.	.	.	.	.
4.-VIIb	B-:maj/3	8f	kicked	.	.	.	.	.	25.552	.	voice
.	.	16f	in	.	.	.	.	.	.	.	.
.	.	8g	my	.	.	.	.	.	.	.	.
.	.	[16g	face	.	.	.	.	.	.	.	.
=15	=15	=15	=15	=15	=15	=15	=15	=15	=15	=15	=15
4.i	C:min	8g]	_	2.r	.	2.r	.	.	26.506	.	voice
.	.	8r	.	.	.	.	.	.	.	.	.
.	.	16g	but	.	.	.	.	.	.	.	.
.	.	16g	I've	.	.	.	.	.	.	.	.
4.IV7	F:7	4a	_	.	.	.	.	.	27.46	.	voice
.	.	16a	come	.	.	.	.	.	.	.	.
.	.	[16b-	_	.	.	.	.	.	.	.	.
=16	=16	=16	=16	=16	=16	=16	=16	=16	=16	=16	=16
2.-VII	B-:maj	8b-]	_	4.r	.	2.r	.	.	28.413	.	voice
.	.	[4b-	through	.	.	.	.	A	.	.	.
.	.	4.b-]	_	16B-	And	.	.	.	.	.	.
.	.	.	.	16c	the	.	.	.	.	.	.
.	.	.	.	16d	beat	.	.	.	.	.	.
.	.	.	.	16f	will	.	.	.	.	.	.
.	.	.	.	8a-	go	.	.	.	.	.	.
=17	=17	=17	=17	=17	=17	=17	=17	=17	=17	=17	=17
4.-vii	B-:sus4(b7)	2.r	.	4cc	on	4c	on	.	30.321	.	voice
.	.	.	.	8r	.	8r	.	.	.	.	.
4.-VII7	B-:7(#11)	.	.	4cc	on	4d-	on	.	31.274	.	voice
.	.	.	.	8r	.	8r	.	.	.	.	.
=18	=18	=18	=18	=18	=18	=18	=18	=18	=18	=18	=18
4.-VII7	B-:7	2.r	.	4cc	on	4d	on	.	32.228	.	voice
.	.	.	.	8r	.	8r	.	.	.	.	.
*F:	*F:	*F:	*	*F:	*	*F:	*	*	*	*	*
4.V7	C:7	.	.	4.cc	on	4.e	on	.	33.182	.	voice
=19	=19	=19	=19	=19	=19	=19	=19	=19	=19	=19	=19
*>Letter>B	*>Letter>B	*>Letter>B	*>Letter>B	*>Letter>B	*>Letter>B	*>Letter>B	*>Letter>B	*>Letter>B	*>Letter>B	*>Letter>B	*>Letter>B
*>Label>Chorus	*>Label>Chorus	*>Label>Chorus	*>Label>Chorus	*>Label>Chorus	*>Label>Chorus	*>Label>Chorus	*>Label>Chorus	*>Label>Chorus	*>Label>Chorus	*>Label>Chorus	*>Label>Chorus
2.I	F:maj	[4.f	We	4.r	.	4.r	.	.	34.136	newline	voice
.	.	8f]	_	4.r	.	4.r	.	.	.	.	.
.	.	8e	are	.	.	.	.	.	.	.	.
.	.	8f	the	.	.	.	.	.	.	.	.
=20	=20	=20	=20	=20	=20	=20	=20	=20	=20	=20	=20
2.iii7	A:min7	4e	champ-	2.r	.	2.r	.	.	36.035	.	voice
.	.	[8c	-ions	.	.	.	.	.	.	.	.
.	.	8c]	_	.	.	.	.	.	.	.	.
.	.	8r	.	.	.	.	.	.	.	.	.
.	.	8A	my	.	.	.	.	.	.	.	.
=21	=21	=21	=21	=21	=21	=21	=21	=21	=21	=21	=21
2.VI	D:maj	4d	friend	2.r	.	2.r	.	C	37.934	.	voice
.	.	[8A	_	.	.	.	.	.	.	.	.
.	.	4.A]	_	.	.	.	.	.	.	.	.
=22	=22	=22	=22	=22	=22	=22	=22	=22	=22	=22	=22
4.iv	B-:5	4.r	.	2.r	.	2.r	.	.	39.834	.	voice
4.v	C:5	4r	.	.	.	.	.	.	40.783	.	voice
.	.	8c	and	.	.	.	.	.	.	.	.
=23	=23	=23	=23	=23	=23	=23	=23	=23	=23	=23	=23
2.I	F:maj	[4.f	we'll	2.r	.	2.r	.	.	41.733	newline	voice
.	.	8f]	_	.	.	.	.	.	.	.	.
.	.	8g	keep	.	.	.	.	.	.	.	.
.	.	8a	on	.	.	.	.	.	.	.	.
=24	=24	=24	=24	=24	=24	=24	=24	=24	=24	=24	=24
2.iii7	A:min7	4cc	fight-	2.r	.	2.r	.	.	43.638	.	voice
.	.	[8a	-ing	.	.	.	.	.	.	.	.
.	.	8a]	_	.	.	.	.	.	.	.	.
.	.	16r	.	.	.	.	.	.	.	.	.
.	.	8d	till	.	.	.	.	.	.	.	.
.	.	16e	the	.	.	.	.	.	.	.	.
=25	=25	=25	=25	=25	=25	=25	=25	=25	=25	=25	=25
2.IV	B-:maj	[4.d	end	2.r	.	2.r	.	C	45.542	.	voice
.	.	4d]	_	.	.	.	.	.	.	.	.
.	.	8r	.	.	.	.	.	.	.	.	.
=26	=26	=26	=26	=26	=26	=26	=26	=26	=26	=26	=26
2.VI7b	D:7/3	2.r	.	2.r	.	2.r	.	.	47.447	.	voice
=27	=27	=27	=27	=27	=27	=27	=27	=27	=27	=27	=27
2.ii	G:min	4.d	We	2.r	.	2.r	.	.	49.351	newline	voice
.	.	4c	are	.	.	.	.	.	.	.	.
.	.	8d	the	.	.	.	.	.	.	.	.
=28	=28	=28	=28	=28	=28	=28	=28	=28	=28	=28	=28
2.ii	G:min	4.c	champ-	2.r	.	2.r	.	.	.	.	voice
.	.	4B-	-ions	.	.	.	.	.	.	.	.
.	.	8r	.	.	.	.	.	.	.	.	.
=29	=29	=29	=29	=29	=29	=29	=29	=29	=29	=29	=29
2.iv	B-:min	4.b-	We	2.r	.	2.r	.	.	53.173	.	voice
.	.	4a	are	.	.	.	.	.	.	.	.
.	.	8b-	the	.	.	.	.	.	.	.	.
=30	=30	=30	=30	=30	=30	=30	=30	=30	=30	=30	=30
4.III7c	A:7(b9)/5	4.a	champ-	2.r	.	2.r	.	.	55.084	.	voice
4.III7d	A:7(b9)/b7	4g	-ions	.	.	.	.	.	56.039	.	voice
.	.	8r	.	.	.	.	.	.	.	.	.
=31	=31	=31	=31	=31	=31	=31	=31	=31	=31	=31	=31
2.I	F:maj	4.a	No	2.r	.	2.r	.	.	56.995	newline	voice
.	.	4f	time	.	.	.	.	.	.	.	.
.	.	8b-	for	.	.	.	.	.	.	.	.
=32	=32	=32	=32	=32	=32	=32	=32	=32	=32	=32	=32
2.-VII7b	E-:maj7(#11)/3	4.a	los-	2.r	.	2.r	.	.	58.891	.	voice
.	.	8f	-ers	.	.	.	.	.	.	.	.
.	.	8r	.	.	.	.	.	.	.	.	.
.	.	8b-	'Cause	.	.	.	.	.	.	.	.
=33	=33	=33	=33	=33	=33	=33	=33	=33	=33	=33	=33
2.-III	A-:maj6	4.a	we	2.r	.	2.r	.	.	60.787	.	voice
.	.	4f	are	.	.	.	.	.	.	.	.
.	.	8b-	the	.	.	.	.	.	.	.	.
=34	=34	=34	=34	=34	=34	=34	=34	=34	=34	=34	=34
2.IV	B-:maj	4.a	champ-	2.r	.	2.r	.	.	62.683	.	voice
.	.	4.f	-ions	.	.	.	.	.	.	.	.
=35	=35	=35	=35	=35	=35	=35	=35	=35	=35	=35	=35
2.v7	C:min7(11)	4.r	.	2.r	.	2.r	.	.	64.579	.	voice
.	.	8r	.	.	.	.	.	.	.	.	.
.	.	8e-	of	.	.	.	.	.	.	.	.
.	.	16f	the	.	.	.	.	.	.	.	.
.	.	[16f	world	.	.	.	.	.	.	.	.
=36	=36	=36	=36	=36	=36	=36	=36	=36	=36	=36	=36
*>Letter>C	*>Letter>C	*>Letter>C	*>Letter>C	*>Letter>C	*>Letter>C	*>Letter>C	*>Letter>C	*>Letter>C	*>Letter>C	*>Letter>C	*>Letter>C
*>Label>Trans	*>Label>Trans	*>Label>Trans	*>Label>Trans	*>Label>Trans	*>Label>Trans	*>Label>Trans	*>Label>Trans	*>Label>Trans	*>Label>Trans	*>Label>Trans	*>Label>Trans
*f:	*f:	*f:	*	*f:	*	*f:	*	*	*	*	*
2.i	F:min	2.f_	_	2.r	.	2.r	.	.	66.474	newline	piano
=37	=37	=37	=37	=37	=37	=37	=37	=37	=37	=37	=37
2.ii7	G:min7	2.f_	_	2.r	.	2.r	.	.	68.377	.	piano
=38	=38	=38	=38	=38	=38	=38	=38	=38	=38	=38	=38
2.i	F:min	2.f]	_	2.r	.	2.r	.	.	70.28	.	piano
=39	=39	=39	=39	=39	=39	=39	=39	=39	=39	=39	=39
2.ii7	G:min7	2.r	.	2.r	.	2.r	.	.	72.182	.	piano
=40	=40	=40	=40	=40	=40	=40	=40	=40	=40	=40	=40
2.i	F:min	2.r	.	2.r	.	2.r	.	.	74.085	.	piano
=41	=41	=41	=41	=41	=41	=41	=41	=41	=41	=41	=41
2.v	C:sus4(b7)	4r	.	2.r	.	2.r	.	.	75.988	.	piano
*c:	*c:	*c:	*	*c:	*	*c:	*	*	*c:	*c:	*c:
.	.	8G	I've	.	.	.	.	.	.	.	.
.	.	8G	ta-	.	.	.	.	.	.	.	.
.	.	8B-	-ken	.	.	.	.	.	.	.	.
.	.	8c	my	.	.	.	.	.	.	.	.
=42	=42	=42	=42	=42	=42	=42	=42	=42	=42	=42	=42
*>Letter>A	*>Letter>A	*>Letter>A	*>Letter>A	*>Letter>A	*>Letter>A	*>Letter>A	*>Letter>A	*>Letter>A	*>Letter>A	*>Letter>A	*>Letter>A
*>Label>Verse	*>Label>Verse	*>Label>Verse	*>Label>Verse	*>Label>Verse	*>Label>Verse	*>Label>Verse	*>Label>Verse	*>Label>Verse	*>Label>Verse	*>Label>Verse	*>Label>Verse
2.i	C:min	4.c	bows	2.r	.	2.r	.	D	77.89	newline	voice
.	.	4.r	.	.	.	.	.	.	.	.	.
=43	=43	=43	=43	=43	=43	=43	=43	=43	=43	=43	=43
2.vf	G:sus4(b7)/4	8r	.	2.r	.	2.r	.	.	79.812	.	voice
.	.	8G	and	.	.	.	.	.	.	.	.
.	.	[8G	my	.	.	.	.	.	.	.	.
.	.	8G]	_	.	.	.	.	.	.	.	.
.	.	8B-	cur-	.	.	.	.	.	.	.	.
.	.	16d	-tain	.	.	.	.	.	.	.	.
.	.	[16c	calls	.	.	.	.	E	.	.	.
=44	=44	=44	=44	=44	=44	=44	=44	=44	=44	=44	=44
2.i	C:min	4.c]	_	2.r	.	2.r	.	.	81.733	.	voice
.	.	4.r	.	.	.	.	.	.	.	.	.
=45	=45	=45	=45	=45	=45	=45	=45	=45	=45	=45	=45
2.vf	G:sus4(b7)/4	4.r	.	2.r	.	2.r	.	.	83.654	.	voice
.	.	8G	You	.	.	.	.	.	.	.	.
.	.	8B-	brought	.	.	.	.	.	.	.	.
.	.	8c	my	.	.	.	.	.	.	.	.
=46	=46	=46	=46	=46	=46	=46	=46	=46	=46	=46	=46
2.i	C:min	8.c	fame	2.r	.	2.r	.	.	85.576	newline	voice
.	.	8c	and	.	.	.	.	.	.	.	.
.	.	[16c	for-	.	.	.	.	.	.	.	.
.	.	16c]	_	.	.	.	.	.	.	.	.
.	.	16c	-tune	.	.	.	.	.	.	.	.
.	.	16c	and	.	.	.	.	.	.	.	.
.	.	16c	ev-	.	.	.	.	.	.	.	.
.	.	16c	-ery-	.	.	.	.	.	.	.	.
.	.	16c	-thing	.	.	.	.	.	.	.	.
=47	=47	=47	=47	=47	=47	=47	=47	=47	=47	=47	=47
2.vf	G:sus4(b7)/4	16c	that	2.r	.	2.r	.	.	87.484	.	voice
.	.	8.d	goes	.	.	.	.	.	.	.	.
.	.	16G	with	.	.	.	.	.	.	.	.
.	.	16G	it	.	.	.	.	.	.	.	.
.	.	8.r	.	.	.	.	.	.	.	.	.
.	.	16G	I	.	.	.	.	.	.	.	.
.	.	16B-	thank	.	.	.	.	.	.	.	.
.	.	16d	you	.	.	.	.	.	.	.	.
=48	=48	=48	=48	=48	=48	=48	=48	=48	=48	=48	=48
2.i	C:min	4.c	all	2.r	.	2.r	.	E	89.393	.	voice
.	.	4r	.	.	.	.	.	.	.	.	.
.	.	8r	.	.	.	.	.	.	.	.	.
=49	=49	=49	=49	=49	=49	=49	=49	=49	=49	=49	=49
2.vf	G:sus4(b7)/4	8r	.	2.r	.	2.r	.	.	91.301	.	voice
.	.	16B-	But	.	.	.	.	.	.	.	.
.	.	8B-	it's	.	.	.	.	.	.	.	.
.	.	[16B-	been	.	.	.	.	.	.	.	.
.	.	16B-]	_	.	.	.	.	.	.	.	.
.	.	8B-	no	.	.	.	.	.	.	.	.
.	.	8d	bed	.	.	.	.	.	.	.	.
.	.	16e-	of	.	.	.	.	.	.	.	.
=50	=50	=50	=50	=50	=50	=50	=50	=50	=50	=50	=50
2.-III	E-:maj	8.e-	ro-	2.r	.	2.r	.	(D	93.21	newline	voice
.	.	16e-	-ses	.	.	.	.	d)	.	.	.
.	.	16c	_	.	.	.	.	.	.	.	.
.	.	16B-	_	.	.	.	.	.	.	.	.
.	.	4.r	.	.	.	.	.	.	.	.	.
=51	=51	=51	=51	=51	=51	=51	=51	=51	=51	=51	=51
2.-viif	B-:sus4(b7)/4	4.r	.	2.r	.	2.r	.	.	95.106	.	voice
.	.	8B-	No	.	.	.	.	.	.	.	.
.	.	8.d	pleas-	.	.	.	.	.	.	.	.
.	.	16e-	-ure	.	.	.	.	.	.	.	.
=52	=52	=52	=52	=52	=52	=52	=52	=52	=52	=52	=52
2.-III	E-:maj	2.e-	cruise	2.r	.	2.r	.	A	97.003	.	voice
=53	=53	=53	=53	=53	=53	=53	=53	=53	=53	=53	=53
2.-viif	B-:sus4(b7)/4	4r	.	2.r	.	2.r	.	.	98.9	.	voice
.	.	8B-	Con-	.	.	.	.	.	.	.	.
.	.	16B-	-sid-	.	.	.	.	.	.	.	.
.	.	16B-	-er	.	.	.	.	.	.	.	.
.	.	16B-	it	.	.	.	.	.	.	.	.
.	.	8d	a	.	.	.	.	.	.	.	.
.	.	16r	.	.	.	.	.	.	.	.	.
=54	=54	=54	=54	=54	=54	=54	=54	=54	=54	=54	=54
4.-III	E-:maj	16e-	cha-	2.r	.	2.r	.	.	100.797	newline	voice
.	.	8e-	-llenge	.	.	.	.	.	.	.	.
.	.	16e-	be-	.	.	.	.	.	.	.	.
.	.	16f	-fore	.	.	.	.	.	.	.	.
.	.	16f	the	.	.	.	.	.	.	.	.
4.-VIIb	B-:maj/3	8.f	whole	.	.	.	.	.	101.746	.	voice
.	.	16f	hu-	.	.	.	.	.	.	.	.
.	.	8g	-man	.	.	.	.	.	.	.	.
=55	=55	=55	=55	=55	=55	=55	=55	=55	=55	=55	=55
4.i	C:min	8g	race	2.r	.	2.r	.	.	102.696	.	voice
.	.	8r	.	.	.	.	.	.	.	.	.
.	.	16g	and	.	.	.	.	.	.	.	.
.	.	16g	I	.	.	.	.	.	.	.	.
4.IV7	F:7	16a	_	.	.	.	.	.	103.645	.	voice
.	.	8a	ain't	.	.	.	.	.	.	.	.
.	.	16a	gon-	.	.	.	.	.	.	.	.
.	.	16b-	-na	.	.	.	.	.	.	.	.
.	.	[16b-	lose	.	.	.	.	A	.	.	.
=56	=56	=56	=56	=56	=56	=56	=56	=56	=56	=56	=56
2.-VII	B-:maj	2.b-]	_	4.r	.	2.r	.	.	104.595	.	voice
.	.	.	.	16B-	And	.	.	.	.	.	.
.	.	.	.	16c	the	.	.	.	.	.	.
.	.	.	.	16d	beat	.	.	.	.	.	.
.	.	.	.	16f	will	.	.	.	.	.	.
.	.	.	.	8a-	go	.	.	.	.	.	.
=57	=57	=57	=57	=57	=57	=57	=57	=57	=57	=57	=57
4.-vii	B-:sus4(b7)	2.r	.	4cc	on	4c	on	.	106.494	.	voice
.	.	.	.	8r	.	8r	.	.	.	.	.
4.-VII7	B-:7(#11)	.	.	4cc	on	4d-	on	.	107.443	.	voice
.	.	.	.	8r	.	8r	.	.	.	.	.
=58	=58	=58	=58	=58	=58	=58	=58	=58	=58	=58	=58
4.-VII7	B-:7	4.r	.	4cc	on	4d	on	.	108.393	.	voice
.	.	.	.	8r	.	8r	.	.	.	.	.
*F:	*F:	*F:	*	*F:	*	*F:	*	*	*	*	*
4.V7	C:7	8.r	.	4.cc	on	4.e	on	.	109.342	.	voice
.	.	8.e	We	.	.	.	.	.	.	.	.
=59	=59	=59	=59	=59	=59	=59	=59	=59	=59	=59	=59
*>Letter>B	*>Letter>B	*>Letter>B	*>Letter>B	*>Letter>B	*>Letter>B	*>Letter>B	*>Letter>B	*>Letter>B	*>Letter>B	*>Letter>B	*>Letter>B
*>Label>Chorus	*>Label>Chorus	*>Label>Chorus	*>Label>Chorus	*>Label>Chorus	*>Label>Chorus	*>Label>Chorus	*>Label>Chorus	*>Label>Chorus	*>Label>Chorus	*>Label>Chorus	*>Label>Chorus
2.I	F:maj	[4.f	_	4.r	.	4.r	.	.	110.292	newline	voice
.	.	8f]	_	4.r	.	4.r	.	.	.	.	.
.	.	8e	are	.	.	.	.	.	.	.	.
.	.	8f	the	.	.	.	.	.	.	.	.
=60	=60	=60	=60	=60	=60	=60	=60	=60	=60	=60	=60
2.iii7	A:min7	4e	champ-	2.r	.	2.r	.	.	112.197	.	voice
.	.	[8c	-ions	.	.	.	.	.	.	.	.
.	.	8c]	_	.	.	.	.	.	.	.	.
.	.	8r	.	.	.	.	.	.	.	.	.
.	.	8A	my	.	.	.	.	.	.	.	.
=61	=61	=61	=61	=61	=61	=61	=61	=61	=61	=61	=61
2.vi	D:min	4d	friend	2.r	.	2.r	.	C	114.101	.	voice
.	.	[8A	_	.	.	.	.	.	.	.	.
.	.	4.A]	_	.	.	.	.	.	.	.	.
=62	=62	=62	=62	=62	=62	=62	=62	=62	=62	=62	=62
4.iv	B-:5	4.r	.	2.r	.	2.r	.	.	116.006	.	voice
4.v	C:5	4r	.	.	.	.	.	.	116.959	.	voice
.	.	8c	and	.	.	.	.	.	.	.	.
=63	=63	=63	=63	=63	=63	=63	=63	=63	=63	=63	=63
2.I	F:maj	[4.f	we'll	2.r	.	2.r	.	.	117.911	newline	voice
.	.	8f]	_	.	.	.	.	.	.	.	.
.	.	8g	keep	.	.	.	.	.	.	.	.
.	.	8a	on	.	.	.	.	.	.	.	.
=64	=64	=64	=64	=64	=64	=64	=64	=64	=64	=64	=64
2.iii7	A:min7	4cc	fight-	2.r	.	2.r	.	.	119.798	.	voice
.	.	[8a	-ing	.	.	.	.	.	.	.	.
.	.	8.a]	_	.	.	.	.	.	.	.	.
.	.	[8.d	till	.	.	.	.	.	.	.	.
=65	=65	=65	=65	=65	=65	=65	=65	=65	=65	=65	=65
2.IV	B-:maj	16d]	_	2.r	.	2.r	.	.	121.684	.	voice
.	.	16e	the	.	.	.	.	.	.	.	.
.	.	[4d	end	.	.	.	.	C	.	.	.
.	.	4.d]	_	.	.	.	.	.	.	.	.
=66	=66	=66	=66	=66	=66	=66	=66	=66	=66	=66	=66
2.VI7b	D:7/3	2.r	.	2.r	.	2.r	.	.	123.571	.	voice
=67	=67	=67	=67	=67	=67	=67	=67	=67	=67	=67	=67
2.ii	G:min	4.d	We	2.r	.	2.r	.	.	125.457	newline	voice
.	.	4c	are	.	.	.	.	.	.	.	.
.	.	8d	the	.	.	.	.	.	.	.	.
=68	=68	=68	=68	=68	=68	=68	=68	=68	=68	=68	=68
2.ii	G:min	4.c	champ-	2.r	.	2.r	.	.	.	.	voice
.	.	4B-	-ions	.	.	.	.	.	.	.	.
.	.	8r	.	.	.	.	.	.	.	.	.
=69	=69	=69	=69	=69	=69	=69	=69	=69	=69	=69	=69
2.iv	B-:min	4.b-	We	2.r	.	2.r	.	.	129.264	.	voice
.	.	4a	are	.	.	.	.	.	.	.	.
.	.	8b-	the	.	.	.	.	.	.	.	.
=70	=70	=70	=70	=70	=70	=70	=70	=70	=70	=70	=70
4.III7c	A:7(b9)/5	4.a	champ-	2.r	.	2.r	.	.	131.168	.	voice
4.III7d	A:7(b9)/b7	4g	-ions	.	.	.	.	.	132.119	.	voice
.	.	8r	.	.	.	.	.	.	.	.	.
=71	=71	=71	=71	=71	=71	=71	=71	=71	=71	=71	=71
2.I	F:maj	4.a	No	2.r	.	2.r	.	.	133.071	newline	voice
.	.	4f	time	.	.	.	.	.	.	.	.
.	.	8b-	for	.	.	.	.	.	.	.	.
=72	=72	=72	=72	=72	=72	=72	=72	=72	=72	=72	=72
2.-VII7b	E-:maj7(#11)/3	4.a	los-	2.r	.	2.r	.	.	134.958	.	voice
.	.	8f	-ers	.	.	.	.	.	.	.	.
.	.	8r	.	.	.	.	.	.	.	.	.
.	.	8b-	'Cause	.	.	.	.	.	.	.	.
=73	=73	=73	=73	=73	=73	=73	=73	=73	=73	=73	=73
2.-III	A-:maj6	4.a	we	2.r	.	2.r	.	.	136.844	.	voice
.	.	4f	are	.	.	.	.	.	.	.	.
.	.	8b-	the	.	.	.	.	.	.	.	.
=74	=74	=74	=74	=74	=74	=74	=74	=74	=74	=74	=74
2.IV	B-:maj	4.a	champ-	2.r	.	2.r	.	.	138.731	.	voice
.	.	4.f	-ions	.	.	.	.	.	.	.	.
=75	=75	=75	=75	=75	=75	=75	=75	=75	=75	=75	=75
2.v7	C:min7(11)	2.r	.	4.r	.	2.r	.	.	140.617	.	voice
.	.	.	.	8r	.	.	.	.	.	.	.
.	.	.	.	8e-	of	.	.	.	.	.	.
.	.	.	.	16f	the	.	.	.	.	.	.
.	.	.	.	[16f	world	.	.	.	.	.	.
=76	=76	=76	=76	=76	=76	=76	=76	=76	=76	=76	=76
*>Letter>B	*>Letter>B	*>Letter>B	*>Letter>B	*>Letter>B	*>Letter>B	*>Letter>B	*>Letter>B	*>Letter>B	*>Letter>B	*>Letter>B	*>Letter>B
*>Label>Chorus	*>Label>Chorus	*>Label>Chorus	*>Label>Chorus	*>Label>Chorus	*>Label>Chorus	*>Label>Chorus	*>Label>Chorus	*>Label>Chorus	*>Label>Chorus	*>Label>Chorus	*>Label>Chorus
2.I	F:maj	[4.f	We	4.f_	_	2.r	.	.	142.504	newline	voice
.	.	8f]	_	4f]	_	.	.	.	.	.	.
.	.	8e	are	.	.	.	.	.	.	.	.
.	.	8f	the	8r	.	.	.	.	.	.	.
=77	=77	=77	=77	=77	=77	=77	=77	=77	=77	=77	=77
2.iii7	A:min7	4e	champ-	2.r	.	2.r	.	.	144.362	.	voice
.	.	[8c	-ions	.	.	.	.	.	.	.	.
.	.	8c]	_	.	.	.	.	.	.	.	.
.	.	8r	.	.	.	.	.	.	.	.	.
.	.	8A	my	.	.	.	.	.	.	.	.
=78	=78	=78	=78	=78	=78	=78	=78	=78	=78	=78	=78
2.vi	D:min	4d	friend	2.r	.	2.r	.	C	146.22	.	voice
.	.	[8A	_	.	.	.	.	.	.	.	.
.	.	4.A]	_	.	.	.	.	.	.	.	.
=79	=79	=79	=79	=79	=79	=79	=79	=79	=79	=79	=79
4.iv	B-:5	4.r	.	2.r	.	2.r	.	.	148.077	.	voice
4.v	C:5	4r	.	.	.	.	.	.	149.006	.	voice
.	.	8a	and	.	.	.	.	.	.	.	.
=80	=80	=80	=80	=80	=80	=80	=80	=80	=80	=80	=80
2.I	F:maj	[4.a	we'll	2.r	.	2.r	.	.	149.935	newline	voice
.	.	8a]	_	.	.	.	.	.	.	.	.
.	.	8a	keep	.	.	.	.	.	.	.	.
.	.	8a	on	.	.	.	.	.	.	.	.
=81	=81	=81	=81	=81	=81	=81	=81	=81	=81	=81	=81
2.iii7	A:min7	16a	fight-	2.r	.	2.r	.	.	151.776	.	voice
.	.	8.g	_	.	.	.	.	.	.	.	.
.	.	[8g	-ing	.	.	.	.	.	.	.	.
.	.	4.g]	_	.	.	.	.	.	.	.	.
=82	=82	=82	=82	=82	=82	=82	=82	=82	=82	=82	=82
2.IV	B-:maj	8d	till	2.r	.	2.r	.	.	153.616	.	voice
.	.	8e	the	.	.	.	.	.	.	.	.
.	.	[8d	end	.	.	.	.	C	.	.	.
.	.	4.d]	_	.	.	.	.	.	.	.	.
=83	=83	=83	=83	=83	=83	=83	=83	=83	=83	=83	=83
2.VI7b	D:7/3	4.r	.	2.r	.	2.r	.	.	155.456	.	voice
.	.	4.d	Ah	.	.	.	.	.	.	.	.
=84	=84	=84	=84	=84	=84	=84	=84	=84	=84	=84	=84
2.ii	G:min	4.d	We	2.r	.	2.r	.	.	157.297	newline	voice
.	.	4c	are	.	.	.	.	.	.	.	.
.	.	8d	the	.	.	.	.	.	.	.	.
=85	=85	=85	=85	=85	=85	=85	=85	=85	=85	=85	=85
2.ii	G:min	4.c	champ-	2.r	.	2.r	.	.	.	.	voice
.	.	4B-	-ions	.	.	.	.	.	.	.	.
.	.	8r	.	.	.	.	.	.	.	.	.
=86	=86	=86	=86	=86	=86	=86	=86	=86	=86	=86	=86
2.iv	B-:min	4.b-	We	2.r	.	2.r	.	.	161.071	.	voice
.	.	4a	are	.	.	.	.	.	.	.	.
.	.	8b-	the	.	.	.	.	.	.	.	.
=87	=87	=87	=87	=87	=87	=87	=87	=87	=87	=87	=87
4.III7c	A:7(b9)/5	4.a	champ-	2.r	.	2.r	.	.	162.958	.	voice
4.III7d	A:7(b9)/b7	4g	-ions	.	.	.	.	.	163.902	.	voice
.	.	8r	.	.	.	.	.	.	.	.	.
=88	=88	=88	=88	=88	=88	=88	=88	=88	=88	=88	=88
2.I	F:maj	4.a	No	2.r	.	2.r	.	.	164.846	newline	voice
.	.	4f	time	.	.	.	.	.	.	.	.
.	.	8b-	for	.	.	.	.	.	.	.	.
=89	=89	=89	=89	=89	=89	=89	=89	=89	=89	=89	=89
2.-VII7b	E-:maj7(#11)/3	4.a	los-	2.r	.	2.r	.	.	166.75	.	voice
.	.	8f	-ers	.	.	.	.	.	.	.	.
.	.	8r	.	.	.	.	.	.	.	.	.
.	.	8b-	'Cause	.	.	.	.	.	.	.	.
=90	=90	=90	=90	=90	=90	=90	=90	=90	=90	=90	=90
2.-III	A-:maj6	4.a	we	2.r	.	2.r	.	.	168.655	.	voice
.	.	4f	are	.	.	.	.	.	.	.	.
.	.	8b-	the	.	.	.	.	.	.	.	.
=91	=91	=91	=91	=91	=91	=91	=91	=91	=91	=91	=91
2.IV	B-:maj	4.a	champ-	2.r	.	2.r	.	.	170.56	.	voice
.	.	4.f	-ions	.	.	.	.	.	.	.	.
=92	=92	=92	=92	=92	=92	=92	=92	=92	=92	=92	=92
2.v7	C:min7(11)	2.r	.	2.r	.	2.r	.	.	172.464	.	voice
1r;	N	r;	.	r;	.	r;	.	.	178.654	.	r
1r;	N	r;	.	r;	.	r;	.	.	183.171	.	r
*-	*-	*-	*-	*-	*-	*-	*-	*-	*-	*-	*-
!!!BillboardChartDate: 1978/01/14
!!!BillboardPeak: 4
!!!BillboardWeeksOnChart: 27
!!!COC: Queen
!!!ENC: Nathaniel Condit-Schultz
!!!EST: Awating manual error checking and editing.
!!!OTL: We Are The Champions
!!!RDF**harte: Chris Harte's syntax, used by MIREX
!!!RDF**harmony: **recip + pitch class of root + harmonic quality
!!!RDF**leadinstrument: original McGill primary instrumentation annotation
!!!RDF**phrase: newline = linebreak in original McGill transcription
!!!RDF**timestamp: McGill audio timestamp in seconds
!!!RDT: 2017/01/12/
!!!SampleActualRank: 10
!!!SampleID#: 0588
!!!SampleTargetRank: 10
!!!MBID: 3604eb06-4bc2-4416-9b31-ceadae51bc70
